www/assets/icons/laptop_windows.svg

<svg xmlns="http://www.w3.org/2000/svg" width="24" height="24" viewBox="0 0 24 24" fill='currentColor'><path d="M20 18.5v-1c1.1 0 1.99-.9 1.99-2l.01-10c0-1.1-.9-2-2-2H4c-1.1 0-2 .9-2 2v10c0 1.1.9 2 2 2v1H0v2h24v-2zM4 5.5h16v10H4z"/></svg>

<svg width="24" height="24" viewBox="0 0 24 24" xmlns="http://www.w3.org/2000/svg" fill='currentColor'><path d="M20 18.5V17.5C21.1 17.5 21.99 16.6 21.99 15.5L22 5.5C22 4.4 21.1 3.5 20 3.5H4C2.9 3.5 2 4.4 2 5.5V15.5C2 16.6 2.9 17.5 4 17.5V18.5H0V20.5H24V18.5H20ZM4 5.5H20V15.5H4V5.5Z"/></svg>
